X: 2720
T: Banks Of Lough Gowna, The
R: jig
M: 6/8
K: Aminor
|:ABA AGE|EDE ~G3|ABA AGE|c2d edc|
ABA AGE|EDE G3|cde ged|1 c2B A2G:|2 c2B A2B||
|:cde g2a|gea ged|cde g2a|geg a2B|
cde g2a|gea ged|cde ged|1 cAA A2B:|2 cAA A2G||

